X:4601
L:1/8
M:4/4
K:C
 b!p! ue ue uca ge ad!p! a | d |[M:4/4][K:Dmin] ead[Q:1/8=180].DE | FEDE FGAG | FEDF ECCE | 
 FEDE FGAG | (3FED EC A,DDE | FEDE FGA=B | cAGF ECCE | DEFG Add=B | cAGc AD D2 || ^cd Ad d=cAG | 
 FEDF ECCc | d2 Ad dcAG | Addc d2 de | fdec dcAG | FEDF ECCE | DEFG Add=B | cAGF ED D2 |]

